!!!!SEGMENT: pl-sa--l-1636--043_anonim--keyboard-piece.krn
!!!cenid: 17xx:750
!!!COM: Anonim
!!!COM-rismid: pe30004985
!!!CDT:
!!!CNT:
!!!OTL: [Keyboard piece]
!!!PDT:
!!!AGN: Secular
!!!SMS-siglum: PL-SA
!!!SMS-shelfmark: L 1636
!!!SMS-shelfwork: 043 W
!!!SMS-variant:
!!!SMS-altvar:
!!!NIFC-rismid: 1001076525
!!!URL-scan: http://repozytorium.nifc.pl/skany/pl-sa-nut--l1636
!!!ONB-nifc: 12v, skan 0016, s. 1-2
!!!AIN: 2 empty
!!!key:
**kern	**kern
*group1	*group1
*part2	*part1
*staff2	*staff1
*Iempty	*Iempty
*I"	*I"
*clefF4	*clefC1
*k[]	*k[]
*G:	*G:
*M4/4	*M4/4
=1	=1
*	*^
*2\right	*2\right	*2\right
!	!LO:TX:a:t=P:problem=uszkodzony papier	!
!LO:TX:a:t=P:problem=8\right&colon; global	!	!
8G\L	2ryy	1g
8F\	.	.
8E\	.	.
8D\J	.	.
8C\L	2cc/ 2ee	.
8D\	.	.
8E\	.	.
8F\J	.	.
=2	=2	=2
!LO:TX:a:t=P:problem=mixed beam	!	!
8G\L	2b/ 2dd	2g\
8GG/	.	.
8BB/	.	.
8C/J	.	.
8D\L	2a/ 2dd	2f\
8E\	.	.
8F\	.	.
8G\J	.	.
=3	=3	=3
!LO:TX:a:t=P:problem=mixed beam	!	!
8A\L	2cc/ 2ee	2a\
8AA\	.	.
8C\	.	.
8D\J	.	.
8E\L	2b/ 2ee	2g\
8F\	.	.
8G\	.	.
8E\J	.	.
=4	=4	=4
*	*	*^
8A\L	2ff/	2dd\	1a
8d\	.	.	.
8c\	.	.	.
8d\J	.	.	.
8c\L	2ee/	2cc\	.
!LO:TX:a:t=P:problem=16\right&colon; global	!	!	!
16A\L	.	.	.
16B\JJ	.	.	.
8c\L	.	.	.
8A\J	.	.	.
*	*	*v	*v
=5	=5	=5
!LO:TX:a:t=P:problem=mixed beam	!	!
8B-X\L	2b-X/ 2dd	1f
8BB-X\	.	.
8D\	.	.
8E\J	.	.
!LO:TX:a:t=P:problem=mixed beam	!	!
8F/L	2a/ 2cc	.
16FF/L	.	.
16GG/J	.	.
8AA/	.	.
8FF/J	.	.
=6	=6	=6
!LO:TX:a:t=P:problem=4\right&colon; global	!	!LO:TX:a:t=P:problem=4\right&colon; global
4G\	1dd	4b-X\
4F\	.	4a\
4E-X\	.	4g\
4D\	.	8a\L
.	.	8b-\J
!!LO:LB:g=original
=7	=7	=7
4C/	2.cc/	4e\
4D/	.	4f#X\
4E-X\	.	2g\
4C/	4b-X/	.
*	*v	*v
=8	=8
*^	*
!	!	!LO:TX:a:t=P:problem=8\right&colon; global
8F#X/L	1D	8a\L
8B-X/	.	8dd\
8A/	.	8cc\
8G/J	.	8b-X\J
8G/L	.	8b-\L
!LO:TX:b:t=♯	!	!
8F#y/	.	8a\
8A/	.	8cc\
8G/J	.	8b-\J
=9	=9	=9
8F#X/L	1D	8a\L
!	!	!LO:TX:a:t=P:problem=16\right&colon; global
16G/L	.	16b\L
16F#/JJ	.	16a\JJ
16G/LL	.	16b\LL
16F#/	.	16a\
!LO:N:vis=16	!	!LO:N:vis=16
32G/L	.	32b\L
!LO:N:vis=16	!	!LO:N:vis=16
32F#/	.	32a\
32G/	.	32b\
32F#/JJJ	.	32a\JJJ
2F#/	.	2a\
*v	*v	*
=10	=10
1GG 1BB 1D 1G	1B 1d 1g
==	==
*-	*-
!!!system-decoration: [(g1)]
!!!ENC: Anna Matuszewska
!!!END: 2020-12-08
!!!ENC: Andrzej Borzym
!!!END: 2020-06-11
